assets/Bottle with popping cork/Flat/bottle_with_popping_cork_flat.svg

<svg width="32" height="32" viewBox="0 0 32 32" fill="none" xmlns="http://www.w3.org/2000/svg">
<path d="M7.89127 5.92513L5.96127 7.85513C5.85127 7.96513 5.68127 7.96513 5.57127 7.85513L3.68127 5.95513L6.00127 3.63513L7.89127 5.53513C8.00127 5.64513 8.00127 5.81513 7.89127 5.92513Z" fill="#E19747"/>
<path d="M9.47129 2.00512C9.20129 2.02512 9.00129 2.25512 9.00129 2.52512V5.18512C9.00129 5.43512 8.68129 5.52512 8.54129 5.32512L7.81129 4.20512C7.57129 3.84512 7.00129 4.01512 7.00129 4.44512V6.34512C7.00129 6.71512 6.71129 7.00512 6.35129 7.00512H5.06129C4.67129 7.00512 4.48129 7.47512 4.75129 7.75512L5.57129 8.58512C5.73129 8.73512 5.62129 9.00512 5.40129 9.00512H2.52129C2.25129 9.00512 2.02129 9.20512 2.00129 9.47512C1.99129 9.76512 2.22129 10.0051 2.50129 10.0051H7.37732L9.00129 9.00512L10.0013 7.36592V2.50512C10.0013 2.21512 9.76129 1.98512 9.47129 2.00512Z" fill="#FEEFC2"/>
<path d="M7.20131 10.0951L10.0713 7.21506C10.3713 6.91506 10.8613 6.92506 11.1813 7.24506C11.4913 7.55506 11.5013 8.05506 11.2013 8.35506L10.7879 10.9139L8.33131 11.2251C8.03131 11.5351 7.53131 11.5151 7.22131 11.2051C6.91131 10.8951 6.90131 10.3951 7.20131 10.0951Z" fill="#44911B"/>
<path d="M11.3524 15.7537C11.4872 18.9988 12.8273 22.081 15.1313 24.385L20.4713 29.725C20.8313 30.085 21.4213 30.085 21.7913 29.725L29.7313 21.765C30.0913 21.405 30.0913 20.805 29.7313 20.445L24.3913 15.105C22.086 12.7997 19.0015 11.4506 15.7627 11.316L15.6875 11.3788L12.3471 12.5174L11.4141 15.6796L11.3524 15.7537Z" fill="#44911B"/>
<path d="M6.89128 3.60512L3.60128 6.89512C3.44128 7.05512 3.19128 7.06512 3.03128 6.90512L2.11128 5.98512C1.96128 5.83512 1.96128 5.57512 2.12128 5.41512L5.40128 2.12512C5.56128 1.96512 5.81128 1.95512 5.97128 2.11512L6.90128 3.04512C7.05128 3.19512 7.05128 3.44512 6.89128 3.60512Z" fill="#F3C07B"/>
<path d="M8.24078 11.3045C8.27254 11.281 8.30283 11.2546 8.33132 11.2251L11.2013 8.35512C11.2478 8.30859 11.2869 8.25726 11.3186 8.20258L11.3413 8.22509L13.9213 10.7951C14.2413 11.1251 14.6913 11.3051 15.1513 11.3051C15.3556 11.3039 15.5594 11.3076 15.7627 11.316L15.6875 11.3789L15.2578 14.4727C15.1965 14.8914 14.9148 15.1926 14.4961 15.2539L11.4141 15.6797L11.3524 15.7537C11.3438 15.5481 11.3401 15.3419 11.3413 15.1351C11.3413 14.6651 11.1613 14.2251 10.8313 13.8951L8.25128 11.3151L8.24078 11.3045Z" fill="#F3C07B"/>
<path d="M20.9913 26.7751L26.7313 21.0251C26.8513 20.9051 26.8513 20.7051 26.7313 20.5851L23.4213 17.2651C23.3013 17.1451 23.1013 17.1451 22.9813 17.2651L17.2413 23.0151C17.1213 23.1351 17.1213 23.3351 17.2413 23.4551L20.5513 26.7751C20.6713 26.8951 20.8713 26.8951 20.9913 26.7751Z" fill="#F3C07B"/>
<path d="M12.6713 5.01509C12.6713 5.38512 12.3713 5.68509 12.0013 5.68509C11.6313 5.68509 11.3313 5.38512 11.3313 5.01509C11.3313 4.64506 11.6313 4.34509 12.0013 4.34509C12.3713 4.34509 12.6713 4.64506 12.6713 5.01509Z" fill="#FFDEA7"/>
<path d="M6.00128 12.0051C6.00128 12.5574 5.55357 13.0051 5.00128 13.0051C4.449 13.0051 4.00128 12.5574 4.00128 12.0051C4.00128 11.4528 4.449 11.0051 5.00128 11.0051C5.55357 11.0051 6.00128 11.4528 6.00128 12.0051Z" fill="#FFDEA7"/>
</svg>

<svg xmlns="http://www.w3.org/2000/svg" width="32" height="32" fill="none"><path fill="#E19747" d="m7.891 5.925-1.93 1.93c-.11.11-.28.11-.39 0l-1.89-1.9 2.32-2.32 1.89 1.9c.11.11.11.28 0 .39Z"/><path fill="#FEEFC2" d="M9.471 2.005c-.27.02-.47.25-.47.52v2.66c0 .25-.32.34-.46.14l-.73-1.12c-.24-.36-.81-.19-.81.24v1.9c0 .37-.29.66-.65.66h-1.29c-.39 0-.58.47-.31.75l.82.83c.16.15.05.42-.17.42h-2.88c-.27 0-.5.2-.52.47-.01.29.22.53.5.53h4.876l1.624-1 1-1.64v-4.86c0-.29-.24-.52-.53-.5Z"/><path fill="#44911B" d="m7.201 10.095 2.87-2.88c.3-.3.79-.29 1.11.03.31.31.32.81.02 1.11l-.413 2.559-2.457.311c-.3.31-.8.29-1.11-.02-.31-.31-.32-.81-.02-1.11ZM11.352 15.754a12.959 12.959 0 0 0 3.78 8.631l5.34 5.34c.36.36.95.36 1.32 0l7.94-7.96c.36-.36.36-.96 0-1.32l-5.34-5.34a12.972 12.972 0 0 0-8.63-3.789l-.075.063-3.34 1.138-.933 3.163-.062.074Z"/><path fill="#F3C07B" d="m6.891 3.605-3.29 3.29c-.16.16-.41.17-.57.01l-.92-.92a.408.408 0 0 1 .01-.57l3.28-3.29c.16-.16.41-.17.57-.01l.93.93c.15.15.15.4-.01.56ZM8.24 11.305a.726.726 0 0 0 .091-.08l2.87-2.87a.742.742 0 0 0 .118-.152l.022.022 2.58 2.57c.32.33.77.51 1.23.51.205-.001.408.003.612.011l-.075.063-.43 3.094c-.061.418-.343.72-.762.78l-3.082.427-.062.074a12.995 12.995 0 0 1-.01-.619c0-.47-.18-.91-.51-1.24l-2.58-2.58-.011-.01ZM20.991 26.775l5.74-5.75c.12-.12.12-.32 0-.44l-3.31-3.32a.314.314 0 0 0-.44 0l-5.74 5.75c-.12.12-.12.32 0 .44l3.31 3.32c.12.12.32.12.44 0Z"/><path fill="#FFDEA7" d="M12.671 5.015a.67.67 0 1 1-1.34 0 .67.67 0 0 1 1.34 0ZM6.001 12.005a1 1 0 1 1-2 0 1 1 0 0 1 2 0Z"/></svg>
